source/img/year/number-icon_year-8.svg

<svg width="186" height="212" viewBox="0 0 186 212"  xmlns="http://www.w3.org/2000/svg">

<path d="M151.095 193.708C136.108 204.199 116.719 209.444 92.928 209.444C69.1367 209.444 49.654 204.105 34.48 193.427C19.4933 182.562 12 168.512 12 151.277C12 129.359 23.24 113.623 45.72 104.069C27.736 94.1403 18.744 79.7157 18.744 60.795C18.744 44.8717 25.5817 31.7583 39.257 21.455C53.1197 11.1517 71.01 6 92.928 6C114.846 6 132.643 11.2453 146.318 21.736C160.181 32.0393 167.112 45.2463 167.112 61.357C167.112 79.903 158.12 94.1403 140.136 104.069C151.001 109.127 159.338 115.403 165.145 122.896C170.952 130.202 173.856 139.756 173.856 151.558C173.856 168.98 166.269 183.03 151.095 193.708ZM72.134 162.236C77.192 166.545 84.1233 168.699 92.928 168.699C101.733 168.699 108.664 166.545 113.722 162.236C118.78 157.74 121.309 152.307 121.309 145.938C121.309 139.569 118.593 134.417 113.16 130.483C107.915 126.549 101.171 124.582 92.928 124.582C84.498 124.582 77.6603 126.643 72.415 130.764C67.1697 134.698 64.547 139.943 64.547 146.5C64.547 152.682 67.076 157.927 72.134 162.236ZM75.225 82.994C79.721 87.1153 85.622 89.176 92.928 89.176C100.234 89.176 106.041 87.209 110.35 83.275C114.846 79.1537 117.094 73.8147 117.094 67.258C117.094 61.638 114.846 56.7673 110.35 52.646C105.854 48.5247 100.047 46.464 92.928 46.464C85.622 46.464 79.721 48.5247 75.225 52.646C70.9163 56.58 68.762 61.5443 68.762 67.539C68.762 73.721 70.9163 78.8727 75.225 82.994Z"/>
</svg>

<svg width="186" height="212" viewBox="0 0 186 212" xmlns="http://www.w3.org/2000/svg"><path d="M151.095 193.708c-14.987 10.491-34.376 15.736-58.167 15.736-23.791 0-43.274-5.339-58.448-16.017C19.493 182.562 12 168.512 12 151.277c0-21.918 11.24-37.654 33.72-47.208-17.984-9.929-26.976-24.353-26.976-43.274 0-15.923 6.838-29.037 20.513-39.34C53.12 11.152 71.01 6 92.928 6s39.715 5.245 53.39 15.736c13.863 10.303 20.794 23.51 20.794 39.621 0 18.546-8.992 32.783-26.976 42.712 10.865 5.058 19.202 11.334 25.009 18.827 5.807 7.306 8.711 16.86 8.711 28.662 0 17.422-7.587 31.472-22.761 42.15zm-78.961-31.472c5.058 4.309 11.99 6.463 20.794 6.463 8.805 0 15.736-2.154 20.794-6.463 5.058-4.496 7.587-9.929 7.587-16.298 0-6.369-2.716-11.521-8.149-15.455-5.245-3.934-11.989-5.901-20.232-5.901-8.43 0-15.268 2.061-20.513 6.182-5.245 3.934-7.868 9.179-7.868 15.736 0 6.182 2.529 11.427 7.587 15.736zm3.091-79.242c4.496 4.121 10.397 6.182 17.703 6.182 7.306 0 13.113-1.967 17.422-5.901 4.496-4.121 6.744-9.46 6.744-16.017 0-5.62-2.248-10.49-6.744-14.612-4.496-4.121-10.303-6.182-17.422-6.182-7.306 0-13.207 2.06-17.703 6.182-4.309 3.934-6.463 8.898-6.463 14.893 0 6.182 2.154 11.334 6.463 15.455z"/></svg>
